!!!OTL: Rambling Rover
!!!ONM: 47.
**kern
*clefG2
*k[]
*C:
!Referent unclear -- Conklin/Pearce 
*M6/8
*MM84
{8e
=1
4f
8e
4f
8g
=2
8a
4.g
8r}
{8cc
=3
4dd
8ee
4ff
8a
=4
4g
8cc
4dd}
{16ee
16ff
=5
(8gg
8ee)
8gg
(8ff
8ee)
8cc
=6
(8.a
16g
8f)
4d}
{16f
16f
=7
4g
8a
4cc
8g
=8
4g
8d
4d}
==
*-
!!!CNT: Folksongs of Maritime Canada
!!!MRD: 1928///-1932///
!!!OCL: Helen Creighton
!!!YOR: Songs and Ballads from Nova Scotia
!!!PPR: J.M. Dent & Sons, Limited
!!!PPP: Toronto, Canada
!!!PDT: 1932///
!!!reprint: Dover Publications, 1992: ISBN 0-486-21703-5
!!!ENC1: Craig Stuart Sapp (music and bibliographic data)                       
!!!ENC2: Marcus Pearce (phrase markings and key designations)                   
!!!ENC3: Darrell Conklin (phrase markings and key designations)   
!!!END: 2002/04/10/
!!!EEV: 2004/06/05
!!!MPN: Mr. Ben Henneberry
!!!PPG: 95
!!!EFL: 48/152
!!!ARE: Canada; Nova Scotia
!!!verses: 6
!!!VTS: 2672734327
